icons/svg/bitbucket.svg

﻿<?xml version="1.0" encoding="utf-8"?>
<!DOCTYPE svg PUBLIC "-//W3C//DTD SVG 1.1//EN" "http://www.w3.org/Graphics/SVG/1.1/DTD/svg11.dtd">
<svg xmlns="http://www.w3.org/2000/svg" xmlns:xlink="http://www.w3.org/1999/xlink" version="1.1" baseProfile="full" width="24" height="24" viewBox="0 0 24.00 24.00" enable-background="new 0 0 24.00 24.00" xml:space="preserve">
	<path fill="#000000" fill-opacity="1" stroke-linejoin="round" d="M 11.9985,5.76235C 15.0625,5.7672 17.5473,5.24297 17.5484,4.59089C 17.5494,3.93868 15.0664,3.40637 12.0024,3.40153C 8.93833,3.39655 6.45346,3.92091 6.45242,4.57299C 6.45138,5.22507 8.93447,5.75738 11.9985,5.76235 Z M 12,14.3954C 13.5209,14.3954 14.7538,13.1623 14.7538,11.6416C 14.7538,10.1206 13.5209,8.88778 12,8.88778C 10.4791,8.88778 9.24621,10.1206 9.24621,11.6416C 9.24621,13.1623 10.4791,14.3954 12,14.3954 Z M 12.0001,2.00001C 16.769,2.00001 20.663,3.2821 20.663,4.874C 20.663,5.29331 19.623,11.3055 19.2104,13.6898C 19.0255,14.7591 16.2622,16.3269 12.0022,16.3269L 12.0022,16.3142L 11.9978,16.3269C 7.73778,16.3269 4.9745,14.7591 4.78952,13.6898C 4.37698,11.3055 3.33704,5.29331 3.33704,4.874C 3.33704,3.2821 7.23106,2.00001 12.0001,2.00001 Z M 18.2263,16.0794C 18.3837,16.0794 18.5328,16.1852 18.5328,16.4183L 18.5259,16.4916C 18.1948,18.2637 17.9529,19.5211 17.9104,19.7126C 17.6213,21.0162 15.0713,21.9999 12.0002,22L 11.9998,22C 8.92874,21.9999 6.37864,21.0162 6.0896,19.7126C 6.04714,19.5211 5.80519,18.2637 5.4741,16.4916L 5.46719,16.4183C 5.46719,16.1852 5.61634,16.0794 5.77366,16.0794C 5.90533,16.0794 6.01092,16.1727 6.01092,16.1727C 6.01092,16.1727 8.14423,17.8619 12,17.8621C 15.8558,17.8619 17.9891,16.1727 17.9891,16.1727C 17.9891,16.1727 18.0946,16.0794 18.2263,16.0794 Z M 13.3774,11.6407C 13.3774,12.403 12.7595,13.0208 11.9973,13.0208C 11.2351,13.0208 10.6172,12.403 10.6172,11.6407C 10.6172,10.8784 11.2351,10.2607 11.9973,10.2607C 12.7595,10.2607 13.3774,10.8784 13.3774,11.6407 Z "/>
</svg>

<svg xmlns="http://www.w3.org/2000/svg" version="1.1" baseProfile="full" width="24" height="24" viewBox="0 0 24.00 24.00" xml:space="preserve"><path fill="#000" fill-opacity="1" stroke-linejoin="round" d="M11.998 5.762c3.065.005 5.55-.52 5.55-1.17 0-.653-2.482-1.186-5.546-1.19-3.064-.005-5.55.52-5.55 1.17 0 .653 2.482 1.185 5.546 1.19zM12 14.395c1.52 0 2.754-1.233 2.754-2.753S13.52 8.888 12 8.888c-1.52 0-2.754 1.233-2.754 2.754 0 1.52 1.233 2.753 2.754 2.753zM12 2c4.77 0 8.663 1.282 8.663 2.874 0 .42-1.04 6.432-1.453 8.816-.184 1.07-2.948 2.637-7.208 2.637v-.013l-.004.013c-4.26 0-7.023-1.568-7.208-2.637-.413-2.384-1.453-8.397-1.453-8.816C3.337 3.282 7.23 2 12 2zm6.226 14.08c.158 0 .307.105.307.338l-.007.074c-.33 1.772-.573 3.03-.616 3.22C17.62 21.017 15.07 22 12 22c-3.07 0-5.62-.984-5.91-2.287-.043-.192-.285-1.45-.616-3.22l-.007-.075c0-.233.15-.34.307-.34.13 0 .237.095.237.095s2.134 1.69 5.99 1.69c3.856 0 5.99-1.69 5.99-1.69s.105-.094.236-.094zm-4.85-4.44c0 .763-.617 1.38-1.38 1.38-.76 0-1.38-.617-1.38-1.38 0-.762.62-1.38 1.38-1.38.763 0 1.38.618 1.38 1.38z"/></svg>
